X:332
T:Reel 332
M:4/4
K:Gmaj
L:1/8
e3f edef|cedB cBAB|cdef g2fd|edef gfef|gedB B2Bd|edef gdBG|edGB AB (3cBA |Gcdc BGG2|bgd'g e'gd'b|agbg  (3abc' ba| (3bc'd' gb  (3fed ad|c'e'd'c' bggb| (3d'e'd' bg  (3bc'b gb|c'bag fga2| (3d'c'd' e'c' d'bc'a|bd'ac' bgg2|
